X:835
T:Teampall an Ghleannt\'ain
T:Templeglantine
R:reel
D:Mick O'Brien & Caoimh\'in \'O Raghallaigh: Kitty Lie Over
Z:id:hn-reel-835
M:C|
L:1/8
K:Dmix
dcAG EF~F2 | AG~G2 EF~F2 |1 dcAG EF~F2 | (3ABA GE EDD2 :|2 AG~G2 EF~F2 |
(3ABA GE EDAD |: (3EFG AB c3B | Adde efed | dcAG EFGE | (3ABA GE EDD2 :|

